src/icons/logo.svg

<svg viewBox="0 0 262 32" fill="none" xmlns="http://www.w3.org/2000/svg">
    <path d="M197.26 8.986L193.126 23H189.746L184 4.54H187.562L191.436 18.554H191.488L195.596 4.54H199.054L203.162 18.554H203.214L207.114 4.54H210.572L204.826 23H201.446L197.312 8.986H197.26Z" fill="white" fill-opacity="0.5"/>
    <path d="M219.703 16.656L216.115 17.202C214.434 17.462 213.593 18.1033 213.593 19.126C213.593 20.3047 214.39 20.894 215.985 20.894C217.181 20.894 218.1 20.5733 218.741 19.932C219.382 19.2907 219.703 18.4847 219.703 17.514V16.656ZM215.361 23.312C213.766 23.312 212.579 22.9393 211.799 22.194C211.019 21.4487 210.629 20.4607 210.629 19.23C210.629 16.8727 212.354 15.4513 215.803 14.966L219.703 14.42V14.212C219.703 12.5653 218.741 11.742 216.817 11.742C215.136 11.742 214.182 12.4093 213.957 13.744H210.941C211.08 12.4267 211.626 11.3433 212.579 10.494C213.55 9.62733 214.988 9.194 216.895 9.194C218.819 9.194 220.266 9.636 221.237 10.52C222.225 11.404 222.719 12.6433 222.719 14.238V20.452C222.719 21.544 222.849 22.3933 223.109 23H220.171C220.154 23 220.128 22.9393 220.093 22.818C220.076 22.6793 220.05 22.4627 220.015 22.168C219.998 21.8733 219.989 21.5613 219.989 21.232C219.07 22.6187 217.528 23.312 215.361 23.312Z" fill="white" fill-opacity="0.5"/>
    <path d="M229.483 23H226.389V3.5H229.483V23Z" fill="white" fill-opacity="0.5"/>
    <path d="M236.313 23H233.219V3.5H236.313V23Z" fill="white" fill-opacity="0.5"/>
    <path d="M252.477 17.15H242.207C242.328 18.2247 242.718 19.0827 243.377 19.724C244.036 20.348 244.902 20.66 245.977 20.66C246.688 20.66 247.329 20.4867 247.901 20.14C248.473 19.7933 248.88 19.3253 249.123 18.736H252.243C251.827 20.1053 251.047 21.2147 249.903 22.064C248.776 22.896 247.442 23.312 245.899 23.312C243.888 23.312 242.259 22.6447 241.011 21.31C239.78 19.9753 239.165 18.2853 239.165 16.24C239.165 14.2467 239.789 12.574 241.037 11.222C242.285 9.87 243.897 9.194 245.873 9.194C247.849 9.194 249.444 9.86133 250.657 11.196C251.888 12.5133 252.503 14.1773 252.503 16.188L252.477 17.15ZM245.873 11.716C244.902 11.716 244.096 12.002 243.455 12.574C242.814 13.146 242.415 13.9087 242.259 14.862H249.435C249.296 13.9087 248.915 13.146 248.291 12.574C247.667 12.002 246.861 11.716 245.873 11.716Z" fill="white" fill-opacity="0.5"/>
    <path d="M261.392 20.244V22.922C261.011 23.026 260.473 23.078 259.78 23.078C257.145 23.078 255.828 21.752 255.828 19.1V11.976H253.774V9.506H255.828V5.996H258.922V9.506H261.444V11.976H258.922V18.788C258.922 19.8453 259.425 20.374 260.43 20.374L261.392 20.244Z" fill="white" fill-opacity="0.5"/>
    <path fill-rule="evenodd" clip-rule="evenodd" d="M127.789 1.85156H124.407V22.3236H127.789V14.1123C127.789 11.8626 129.129 10.569 131.228 10.569C133.211 10.569 134.144 11.8626 134.144 13.7748V22.2673H137.525V13.4374C137.525 10.1191 135.659 7.86946 132.045 7.86946C129.888 7.86946 128.43 8.76929 127.789 9.72541V1.85156ZM55.96 19.7365C53.2197 19.7365 51.8205 18.3304 51.6454 16.2495H48.2641C48.3805 19.399 50.4212 22.7173 55.785 22.7173C60.5656 22.7173 63.7724 20.4114 63.7724 16.9244C63.7724 12.4813 60.041 11.6939 56.8929 10.9628C54.5608 10.4566 52.4619 10.0066 52.4619 8.20688C52.4619 6.46338 53.9193 5.5073 56.2514 5.5073C58.8168 5.5073 60.1578 7.02583 60.1578 8.93802H63.5392C63.4228 5.33857 60.9738 2.52647 56.2514 2.52647C51.7622 2.52647 49.0801 5.16983 49.0801 8.26313C49.0801 12.5938 52.6365 13.3812 55.7268 13.9998C58.1753 14.506 60.3324 14.9559 60.3324 17.0369C60.2742 18.7804 58.6999 19.7365 55.96 19.7365ZM75.7243 16.3057C75.7243 18.6116 74.4418 19.8489 72.3429 19.8489C70.3022 19.8489 69.4862 18.5554 69.4862 16.6432V8.15064H66.1045V17.0931C66.1045 20.4114 67.9701 22.661 71.5265 22.661C73.9172 22.661 75.3747 21.6487 76.0161 20.5239V22.3798H79.106V8.15064H75.7243V16.3057ZM90.2419 22.661C87.968 22.661 86.3937 21.7049 85.5777 20.4676V28.004H82.196V8.15064H85.2859V10.1754C86.2187 8.71309 87.968 7.81321 90.2419 7.81321C94.6143 7.81321 97.0632 11.1877 97.0632 15.2371C97.0632 19.2865 94.6143 22.661 90.2419 22.661ZM89.6005 10.6253C87.0352 10.6253 85.4609 12.5938 85.4609 15.2371C85.4609 17.768 87.0352 19.7927 89.6005 19.7927C92.1658 19.7927 93.7401 17.8242 93.7401 15.2371C93.7401 12.65 92.1076 10.6253 89.6005 10.6253ZM122.425 8.03815C122.541 8.03815 122.891 8.03815 122.891 8.03815V11.0752C122.891 11.0752 122.483 11.019 122.133 11.019C119.743 11.019 118.344 12.2001 118.344 14.9559V22.3236H114.962V8.15064H118.052V10.1191C118.635 9.21925 119.86 8.03815 122.425 8.03815ZM112.746 16.1932C112.746 16.1932 112.746 15.6871 112.746 15.1809C112.746 11.019 109.89 7.81321 105.517 7.81321C101.144 7.81321 98.2293 11.0752 98.2293 15.1809C98.2293 19.399 101.086 22.6048 105.575 22.6048C109.015 22.6048 111.58 20.6363 112.455 17.8242H109.073C108.549 19.0615 107.208 19.8489 105.634 19.8489C103.302 19.8489 101.786 18.3867 101.552 16.137H112.746V16.1932ZM105.575 10.4566C107.733 10.4566 109.19 11.8064 109.423 13.7748H101.669C102.019 11.8626 103.418 10.4566 105.575 10.4566ZM154.083 15.1809C154.083 15.6871 154.083 16.1932 154.083 16.1932H142.889C143.122 18.4429 144.638 19.9052 146.97 19.9052C148.544 19.9052 149.827 19.1178 150.41 17.8805H153.791C152.917 20.6926 150.293 22.661 146.912 22.661C142.481 22.661 139.566 19.4553 139.566 15.2371C139.566 11.1314 142.481 7.86946 146.853 7.86946C151.226 7.81321 154.083 11.019 154.083 15.1809ZM150.702 13.7748C150.41 11.8064 149.011 10.4566 146.853 10.4566C144.696 10.4566 143.239 11.8064 142.947 13.7748H150.702ZM164.111 8.03815C164.111 8.03815 163.761 8.03815 163.644 8.03815C161.079 8.03815 159.855 9.21925 159.33 10.1191V8.15064H156.24V22.3236H159.622V14.9559C159.622 12.2001 161.021 11.019 163.411 11.019C163.761 11.019 164.17 11.0752 164.17 11.0752V8.03815H164.111ZM179.27 15.2371C179.27 19.2303 176.355 22.6048 171.632 22.6048C166.968 22.6048 164.053 19.174 164.053 15.2371C164.053 11.2439 166.968 7.81321 171.632 7.81321C176.355 7.81321 179.27 11.2439 179.27 15.2371ZM171.632 10.6815C169.183 10.6815 167.376 12.4813 167.376 15.2371C167.376 17.993 169.183 19.7927 171.632 19.7927C174.081 19.7927 175.888 17.993 175.888 15.2371C175.946 12.4813 174.139 10.6815 171.632 10.6815Z" fill="white"/>
    <path fill-rule="evenodd" clip-rule="evenodd" d="M0.105835 11.0197L11.0667 1.12109H30.5398L41.5006 11.0197L20.8615 30.4793L0.105835 11.0197ZM12.2911 4.15816H18.2379L30.9479 16.7001L20.8033 26.2612L4.65343 11.0759L12.2911 4.15816Z" fill="#1161FE"/>
</svg>

<svg viewBox="0 0 262 32" fill="none" xmlns="http://www.w3.org/2000/svg"><path d="M197.26 8.986 193.126 23h-3.38L184 4.54h3.562l3.874 14.014h.052l4.108-14.014h3.458l4.108 14.014h.052l3.9-14.014h3.458L204.826 23h-3.38l-4.134-14.014h-.052zM219.703 16.656l-3.588.546c-1.681.26-2.522.901-2.522 1.924 0 1.179.797 1.768 2.392 1.768 1.196 0 2.115-.32 2.756-.962.641-.641.962-1.447.962-2.418v-.858zm-4.342 6.656c-1.595 0-2.782-.373-3.562-1.118-.78-.745-1.17-1.733-1.17-2.964 0-2.357 1.725-3.779 5.174-4.264l3.9-.546v-.208c0-1.647-.962-2.47-2.886-2.47-1.681 0-2.635.667-2.86 2.002h-3.016c.139-1.317.685-2.4 1.638-3.25.971-.867 2.409-1.3 4.316-1.3 1.924 0 3.371.442 4.342 1.326.988.884 1.482 2.123 1.482 3.718v6.214c0 1.092.13 1.941.39 2.548h-2.938c-.017 0-.043-.06-.078-.182l-.078-.65a16.27 16.27 0 0 1-.026-.936c-.919 1.387-2.461 2.08-4.628 2.08zM229.483 23h-3.094V3.5h3.094V23zM236.313 23h-3.094V3.5h3.094V23zM252.477 17.15h-10.27c.121 1.075.511 1.933 1.17 2.574.659.624 1.525.936 2.6.936.711 0 1.352-.173 1.924-.52a2.91 2.91 0 0 0 1.222-1.404h3.12a6.335 6.335 0 0 1-2.34 3.328c-1.127.832-2.461 1.248-4.004 1.248-2.011 0-3.64-.667-4.888-2.002-1.231-1.335-1.846-3.025-1.846-5.07 0-1.993.624-3.666 1.872-5.018 1.248-1.352 2.86-2.028 4.836-2.028 1.976 0 3.571.667 4.784 2.002 1.231 1.317 1.846 2.981 1.846 4.992l-.026.962zm-6.604-5.434c-.971 0-1.777.286-2.418.858-.641.572-1.04 1.335-1.196 2.288h7.176c-.139-.953-.52-1.716-1.144-2.288-.624-.572-1.43-.858-2.418-.858zM261.392 20.244v2.678c-.381.104-.919.156-1.612.156-2.635 0-3.952-1.326-3.952-3.978v-7.124h-2.054v-2.47h2.054v-3.51h3.094v3.51h2.522v2.47h-2.522v6.812c0 1.057.503 1.586 1.508 1.586l.962-.13z" fill="#fff" fill-opacity=".5"/><path fill-rule="evenodd" clip-rule="evenodd" d="M127.789 1.852h-3.382v20.472h3.382v-8.212c0-2.25 1.34-3.543 3.439-3.543 1.983 0 2.916 1.294 2.916 3.206v8.492h3.381v-8.83c0-3.318-1.866-5.568-5.48-5.568-2.157 0-3.615.9-4.256 1.856V1.852zM55.96 19.736c-2.74 0-4.14-1.406-4.315-3.486h-3.38c.115 3.149 2.156 6.467 7.52 6.467 4.78 0 7.987-2.306 7.987-5.793 0-4.443-3.731-5.23-6.88-5.961-2.331-.506-4.43-.956-4.43-2.756 0-1.744 1.457-2.7 3.79-2.7 2.565 0 3.906 1.519 3.906 3.431h3.381c-.116-3.6-2.565-6.412-7.288-6.412-4.489 0-7.17 2.644-7.17 5.737 0 4.33 3.555 5.118 6.646 5.737 2.448.506 4.605.956 4.605 3.037-.058 1.743-1.632 2.7-4.372 2.7zm19.764-3.43c0 2.306-1.282 3.543-3.381 3.543-2.04 0-2.857-1.294-2.857-3.206V8.151h-3.382v8.942c0 3.318 1.866 5.568 5.422 5.568 2.391 0 3.849-1.012 4.49-2.137v1.856h3.09V8.15h-3.382v8.156zm14.518 6.355c-2.274 0-3.848-.956-4.664-2.193v7.536h-3.382V8.151h3.09v2.024c.933-1.462 2.682-2.362 4.956-2.362 4.372 0 6.821 3.375 6.821 7.424 0 4.05-2.449 7.424-6.821 7.424zM89.6 10.625c-2.565 0-4.14 1.969-4.14 4.612 0 2.531 1.575 4.556 4.14 4.556 2.566 0 4.14-1.969 4.14-4.556 0-2.587-1.632-4.612-4.14-4.612zm32.825-2.587h.466v3.037s-.408-.056-.758-.056c-2.39 0-3.789 1.181-3.789 3.937v7.368h-3.382V8.15h3.09v1.968c.583-.9 1.808-2.08 4.373-2.08zm-9.679 8.155v-1.012c0-4.162-2.856-7.368-7.229-7.368s-7.288 3.262-7.288 7.368c0 4.218 2.857 7.424 7.346 7.424 3.44 0 6.005-1.969 6.88-4.78h-3.382c-.524 1.236-1.865 2.024-3.439 2.024-2.332 0-3.848-1.462-4.082-3.712h11.194v.056zm-7.171-5.736c2.158 0 3.615 1.35 3.848 3.318h-7.754c.35-1.912 1.749-3.318 3.906-3.318zm48.508 4.724v1.012h-11.194c.233 2.25 1.749 3.712 4.081 3.712 1.574 0 2.857-.787 3.44-2.024h3.381c-.874 2.812-3.498 4.78-6.879 4.78-4.431 0-7.346-3.206-7.346-7.424 0-4.106 2.915-7.368 7.287-7.368 4.373-.056 7.23 3.15 7.23 7.312zm-3.381-1.406c-.292-1.969-1.691-3.318-3.849-3.318-2.157 0-3.614 1.35-3.906 3.318h7.755zm13.409-5.737h-.467c-2.565 0-3.789 1.181-4.314 2.081V8.151h-3.09v14.173h3.382v-7.368c0-2.756 1.399-3.937 3.789-3.937.35 0 .759.056.759.056V8.038h-.059zm15.159 7.2c0 3.992-2.915 7.367-7.638 7.367-4.664 0-7.579-3.431-7.579-7.368 0-3.993 2.915-7.424 7.579-7.424 4.723 0 7.638 3.43 7.638 7.424zm-7.638-4.556c-2.449 0-4.256 1.8-4.256 4.555 0 2.756 1.807 4.556 4.256 4.556 2.449 0 4.256-1.8 4.256-4.556.058-2.756-1.749-4.556-4.256-4.556z" fill="#fff"/><path fill-rule="evenodd" clip-rule="evenodd" d="m.106 11.02 10.96-9.899H30.54L41.5 11.02 20.862 30.48.107 11.02zM12.29 4.158h5.947L30.948 16.7l-10.145 9.561-16.15-15.185 7.638-6.918z" fill="#1161FE"/></svg>
